public/assets/svg/logo-white.svg

<svg width="392" height="78" viewBox="0 0 392 78" fill="none" xmlns="http://www.w3.org/2000/svg">
<path d="M79.538 10.3549L75.9028 14.361L72.3253 18.3012L68.2614 22.7855C68.1543 22.703 68.0554 22.6206 67.9564 22.5217C66.5634 21.1286 66.5634 18.8617 67.9564 17.4604L69.9842 15.4326L74.7817 10.6351C75.4659 9.95096 76.3891 9.58002 77.3123 9.58002C77.8317 9.58002 78.3592 9.69542 78.8456 9.92623C79.0929 10.0499 79.3237 10.19 79.5297 10.3549H79.538Z" fill="#3D63AE"/>
<path d="M79.538 10.3549L75.9028 14.361L72.3253 18.3012L68.2614 22.7855C68.1543 22.703 68.0554 22.6206 67.9564 22.5217C66.5634 21.1286 66.5634 18.8617 67.9564 17.4604L69.9842 15.4326L74.7817 10.6351C75.4659 9.95096 76.3891 9.58002 77.3123 9.58002C77.8317 9.58002 78.3592 9.69542 78.8456 9.92623C79.0929 10.0499 79.3237 10.19 79.5297 10.3549H79.538Z" fill="#3D63AE"/>
<path d="M66.2094 58.9037C66.2424 60.3957 65.0554 61.6075 63.5716 61.6075H25.7935L28.967 56.3401H63.4562C64.8987 56.3401 66.1682 57.4612 66.2094 58.9037Z" fill="white"/>
<path d="M73.7249 11.6881L71.8125 9.3471C71.6724 9.18224 71.5322 9.01738 71.3839 8.86076C69.7847 7.16268 67.5673 6.20648 65.218 6.20648H31.1328C28.495 6.20648 25.9644 7.45943 24.357 9.56142L12.5941 25.0007L8.59619 30.2434H11.4401L13.913 31.9579L17.1031 27.7622L28.5445 12.7515C29.1545 11.9519 30.1272 11.4738 31.1328 11.4738H65.2098C66.1907 11.4738 67.1057 11.9107 67.7322 12.6691L67.8229 12.7762L69.9825 15.4223L72.3236 18.2991L75.9011 14.3589L73.7249 11.6881Z" fill="white"/>
<path d="M94.6466 40.3919V61.2882C94.6466 63.5221 93.7893 65.624 92.2313 67.2232L91.3658 68.1135C89.7749 69.7538 87.5493 70.6935 85.2659 70.6935H82.0841C79.265 70.6935 76.6354 69.3087 75.0527 66.9841L65.0786 52.3774C64.4768 51.4871 63.4712 50.9596 62.3913 50.9596H34.0516C32.9223 50.9596 31.8589 51.5613 31.2736 52.5258L28.9738 56.3423L25.8002 61.6097L22.7997 66.5802C21.2665 69.1191 18.4721 70.6935 15.5046 70.6935H11.5561C9.28104 70.6935 7.14608 69.8115 5.53043 68.2041C3.92303 66.5967 3.04102 64.4535 3.04102 62.1784V40.4414C3.04102 38.5867 3.65925 36.7567 4.78031 35.2812L8.60511 30.2529H11.449L13.9219 31.9675L8.9678 38.4713C8.53916 39.0318 8.30011 39.7325 8.30011 40.4414V62.1784C8.30011 63.0439 8.63808 63.86 9.25631 64.4782C9.8663 65.0882 10.6824 65.4345 11.5561 65.4345H15.5046C16.6339 65.4345 17.7055 64.8327 18.2825 63.86L22.1155 57.5046L26.7564 49.8138C28.2896 47.2749 31.084 45.6922 34.0516 45.6922H62.3996C65.2187 45.6922 67.8483 47.0853 69.4309 49.4099L79.4051 64.0166C80.0068 64.9069 81.0125 65.4345 82.0923 65.4345H85.2742C86.1397 65.4345 86.997 65.0718 87.5987 64.4535L88.4642 63.5633C89.0578 62.9533 89.3792 62.1455 89.3792 61.2964V40.4002C89.3792 39.6583 89.1155 38.9246 88.6456 38.3476L82.0923 31.9675L86.0062 28.7192L92.7259 35.0257C93.9624 36.5341 94.6383 38.4465 94.6383 40.4084L94.6466 40.3919Z" fill="white"/>
<path d="M55.4513 36.9143L52.0634 40.6402C51.4864 41.2749 50.7857 41.753 50.0356 42.0498C49.912 42.0992 49.7883 42.1405 49.6564 42.1817H29.4526C28.9168 42.1817 28.3892 42.0251 27.9524 41.7201L13.9144 31.9767L11.4414 30.2622H2.63779C1.18701 30.2622 0 29.0834 0 27.6244C0 26.1653 1.17876 24.9948 2.63779 24.9948H12.2657C12.3729 24.9948 12.4883 25.0031 12.5955 25.0195C13.0159 25.069 13.4198 25.2256 13.7742 25.4647L17.1127 27.781L30.2852 36.9143H55.4513Z" fill="white"/>
<path d="M97.6811 27.6151C97.6811 28.3569 97.3761 29.0246 96.8815 29.5027C96.4117 29.9643 95.7605 30.2446 95.0433 30.2446H86.2314L83.5607 32.0911L81.6318 33.4265L69.7123 41.6943C69.2671 41.9993 68.7478 42.1559 68.212 42.1559H54.8994L60.1668 36.8886H67.3877L80.2222 27.986L74.518 20.9876L78.2604 17.237L84.6405 25.0679C84.8878 24.9938 85.1434 24.9608 85.3989 24.9608H95.0351C96.4859 24.9608 97.6729 26.1395 97.6729 27.5903L97.6811 27.6151Z" fill="white"/>
<path d="M79.538 10.3552L75.9028 14.3614L72.3253 18.3016L68.2614 22.7858C68.1543 22.7034 68.0554 22.621 67.9564 22.5221C66.5634 21.129 66.5634 18.8621 67.9564 17.4608L69.9842 15.433L74.7817 10.6355C75.4659 9.95132 76.3891 9.58038 77.3123 9.58038C77.8317 9.58038 78.3592 9.69579 78.8456 9.92659C79.0929 10.0502 79.3237 10.1904 79.5297 10.3552H79.538Z" fill="#3D63AE"/>
<path d="M61.3447 30.4101L55.4426 36.9139L52.0547 40.6398C51.4777 41.2745 50.777 41.7526 50.0269 42.0494C49.9033 42.0988 49.7796 42.14 49.6477 42.1813C49.5653 42.206 49.4829 42.2307 49.4004 42.2554C49.3757 42.2307 49.3592 42.206 49.3345 42.1813C48.1805 40.7717 48.2546 38.6944 49.5735 37.3755L50.0352 36.9139L56.4071 30.542C57.0913 29.8578 58.0062 29.4869 58.9377 29.4869C59.457 29.4869 59.9763 29.6023 60.4709 29.8331C60.7924 29.9897 61.0892 30.1875 61.3365 30.4019L61.3447 30.4101Z" fill="#3D63AE"/>
<path d="M86.1113 6.00232L82.1628 10.3547L78.5276 14.3608L74.9501 18.301L70.8863 22.7853L63.9786 30.4019L58.0765 36.9057L54.6886 40.6316C54.1116 41.2663 53.4109 41.7444 52.6608 42.0411C52.5371 42.0906 52.4135 42.1318 52.2816 42.173C52.1992 42.1978 52.1167 42.2225 52.0343 42.2472C51.0864 42.4945 50.0807 42.4698 49.1327 42.173C48.4486 41.9587 47.7891 41.6043 47.2039 41.1014L42.3404 36.9139L33.4214 29.2314C31.9459 27.9619 31.781 25.7445 33.0505 24.269C34.3199 22.7935 36.5373 22.6287 38.0128 23.8981L50.5753 34.713L70.4576 12.7946L74.0187 8.87092L80.9099 1.27078C82.2206 -0.163515 84.4462 -0.278919 85.8805 1.03173C87.323 2.33414 87.4302 4.55978 86.1278 6.00232H86.1113Z" fill="#25D366"/>
<path d="M382.722 26.6151C381.485 25.1331 379.945 23.8809 378.042 22.8584C375.89 21.7019 373.462 21.1274 370.581 21.1274C367.412 21.1274 364.522 21.9921 361.824 23.6207L361.823 23.6213C359.305 25.1581 357.35 27.2696 355.772 29.9457L355.55 30.3226H355.988H365.9H365.961L366.015 30.2949C366.394 30.0999 366.678 29.9047 366.951 29.7175C368.571 28.7923 370.27 28.2433 372.142 28.2433C374.023 28.2433 375.719 28.7031 377.328 29.7145L378.15 30.2787L378.213 30.3226H378.291H390.498H390.748V30.0726V21.9445V21.6945H390.498H382.972H382.722V21.9445V26.6151Z" fill="white" stroke="white" stroke-width="0.5"/>
<path d="M363.094 46.783L363.094 46.783L363.092 46.7786C362.107 44.9341 361.653 42.7091 361.653 40.1859C361.653 38.2326 362.014 36.4684 362.644 34.8914L362.781 34.5486H362.412H354.427H354.228L354.183 34.7429C353.813 36.3628 353.535 38.1777 353.535 40.1859C353.535 43.9066 354.276 47.2523 355.763 50.3135L355.762 50.3136L355.767 50.3218C357.345 53.2849 359.392 55.5882 362.004 57.2213C364.612 58.8518 367.503 59.7167 370.581 59.7167C373.37 59.7167 375.888 59.142 378.13 57.9877C380.12 56.9627 381.669 55.6336 382.905 54.1375V58.8996V59.1496H383.155H390.681H390.931V58.8996V34.7986V34.5486H390.681H382.054H381.692L381.82 34.8869C382.452 36.5612 382.813 38.3271 382.813 40.3749C382.813 42.8908 382.271 45.1178 381.283 46.9676C380.291 48.8246 379.036 50.2039 377.432 51.1215C375.81 52.0497 374.108 52.6007 372.233 52.6007C370.441 52.6007 368.652 52.1396 367.043 51.1269C365.427 50.1101 364.082 48.7257 363.094 46.783Z" fill="white" stroke="white" stroke-width="0.5"/>
<path d="M296.721 26.585C295.531 25.1113 293.926 23.8705 292.042 22.8584C289.889 21.7016 287.369 21.1274 284.581 21.1274C281.411 21.1274 278.522 21.9921 275.824 23.6207L275.823 23.6213C273.305 25.1581 271.35 27.2696 269.772 29.9457L269.55 30.3226H269.987H279.9H279.977L280.041 30.2787C280.17 30.1901 280.323 30.1002 280.486 30.0046L280.49 30.002C280.644 29.9111 280.808 29.815 280.95 29.7176C282.57 28.7923 284.269 28.2433 286.141 28.2433C288.022 28.2433 289.718 28.7031 291.327 29.7145L291.736 29.9952L292.149 30.2787L292.213 30.3226H292.291H304.498H304.748V30.0726V21.9445V21.6945H304.498H296.971H296.721V21.9445V26.585Z" fill="white" stroke="white" stroke-width="0.5"/>
<path d="M277.002 46.783L277.002 46.783L277 46.7786C276.015 44.9341 275.561 42.7091 275.561 40.1859C275.561 38.2326 275.922 36.4684 276.553 34.8914L276.69 34.5486H276.32H268.335H268.136L268.092 34.7429C267.721 36.3628 267.443 38.1777 267.443 40.1859C267.443 43.9066 268.184 47.2523 269.671 50.3135L269.671 50.3136L269.675 50.3218C271.253 53.2849 273.301 55.5882 275.913 57.2213C278.522 58.853 281.505 59.7167 284.673 59.7167C287.462 59.7167 289.89 59.1418 292.042 57.9857L292.042 57.9857L292.045 57.9838C294.026 56.8791 295.574 55.6188 296.813 54.0681V59.4667C296.813 63.0172 295.906 65.6864 294.131 67.5152C292.348 69.3504 290.03 70.2748 287.059 70.2748C284.527 70.2748 282.375 69.7164 280.59 68.5213L280.59 68.5211L280.582 68.5163C278.798 67.4142 277.644 65.8579 277.111 64.0279L277.059 63.8479H276.871H269.529H269.249L269.28 64.1259C269.747 68.2595 271.619 71.4412 274.887 73.8451C278.15 76.2449 282.243 77.4853 287.151 77.4853C290.856 77.4853 294.022 76.7222 296.638 75.1834C299.339 73.648 301.393 71.5337 302.793 68.7484C304.189 66.0641 304.931 63.0001 304.931 59.5612V34.7986V34.5486H304.681H295.962H295.593L295.73 34.8914C296.36 36.4662 296.722 38.3247 296.722 40.3749C296.722 42.8908 296.179 45.1178 295.191 46.9676C294.199 48.8246 292.944 50.2039 291.34 51.1215C289.718 52.0497 288.016 52.6007 286.141 52.6007C284.349 52.6007 282.56 52.1396 280.951 51.1269C279.335 50.1102 277.99 48.7257 277.002 46.783Z" fill="white" stroke="white" stroke-width="0.5"/>
<path d="M232.725 43.5548H259.799H260.012L260.046 43.3448C260.232 42.1952 260.325 40.9529 260.325 39.5243C260.325 37.899 260.139 36.2769 259.862 34.7538L259.824 34.5486H259.616H252.09H251.807L251.841 34.8287C251.923 35.5018 252.003 36.1611 252.02 36.8169H232.73C232.827 36.097 232.986 35.4475 233.148 34.8654L233.236 34.5486H232.907H225.381H225.177L225.136 34.7485C224.767 36.5523 224.488 38.3665 224.488 40.3749C224.488 44.1868 225.229 47.6331 226.814 50.5139C228.394 53.3845 230.534 55.6865 233.237 57.3179L233.24 57.3197C236.036 58.9515 239.109 59.7167 242.636 59.7167C246.901 59.7167 250.445 58.6655 253.343 56.4519C256.228 54.2475 258.277 51.3699 259.395 47.9185L259.5 47.5915H259.157H251.172H251.015L250.947 47.7323C250.138 49.3974 249.044 50.6582 247.678 51.504C246.313 52.35 244.662 52.7897 242.728 52.7897C240.03 52.7897 237.707 51.9582 235.831 50.2104C234.017 48.5205 233.032 46.31 232.725 43.5548Z" fill="white" stroke="white" stroke-width="0.5"/>
<path d="M248.81 30.2656L248.88 30.3226H248.969H257.689H258.106L257.909 29.9546C256.419 27.1733 254.275 24.9658 251.666 23.4302L251.666 23.4302L251.663 23.4283C248.959 21.8925 245.887 21.1274 242.453 21.1274C238.928 21.1274 235.762 21.892 232.965 23.5243L232.964 23.5248C230.354 25.0604 228.305 27.1724 226.724 29.949L226.511 30.3226H226.941H235.936H236.026L236.095 30.2656C237.886 28.7904 239.941 28.0543 242.269 28.0543C244.879 28.0543 247.024 28.794 248.81 30.2656Z" fill="white" stroke="white" stroke-width="0.5"/>
<path d="M217.671 29.5665H217.921V29.3165V21.3774V21.1274H217.671C215.152 21.1274 212.998 21.7043 211.123 22.7666L211.123 22.7665L211.118 22.7694C209.575 23.6892 208.242 24.9005 207.182 26.4647V21.9445V21.6945H206.932H199.498H199.248V21.9445V30.0726V30.3226H199.498H211.338H211.385L211.43 30.3051C212.589 29.8457 214.026 29.5665 215.743 29.5665H217.671Z" fill="white" stroke="white" stroke-width="0.5"/>
<path d="M199.157 58.8996V59.1496H199.407H206.841H207.091V58.8996V39.4298C207.091 37.5541 207.273 36.0679 207.631 34.8702L207.727 34.5486H207.392H199.407H199.157V34.7986V58.8996Z" fill="white" stroke="white" stroke-width="0.5"/>
<path d="M182.36 58.8996V59.1496H182.61H189.952H190.202V58.8996V37.1614C190.202 36.2957 190.109 35.5269 190.018 34.7738L190.017 34.7685L189.99 34.5486H189.769H182.151H181.818L181.911 34.8685C182.179 35.7888 182.36 36.9938 182.36 38.2956V58.8996Z" fill="white" stroke="white" stroke-width="0.5"/>
<path d="M179.412 30.2577L179.484 30.3226H179.581H188.759H189.103L188.997 29.9956C188.805 29.4029 188.518 28.9107 188.246 28.4432L188.242 28.4378C186.937 26.0378 185.161 24.2075 182.915 22.9548C180.668 21.7014 178.054 21.1274 175.267 21.1274C173.125 21.1274 171.071 21.5111 169.108 22.3773L169.108 22.3773L169.104 22.3792C167.454 23.1437 166.021 24.2087 164.87 25.509V21.9445V21.6945H164.62H157.186H156.936V21.9445V30.0726V30.3226H157.186H167.649H167.745L167.817 30.2577C169.322 28.8905 171.276 28.2433 173.615 28.2433C176.044 28.2433 177.907 28.8897 179.412 30.2577Z" fill="white" stroke="white" stroke-width="0.5"/>
<path d="M156.936 58.8996V59.1496H157.186H164.62H164.87V58.8996V38.2956C164.87 37.0895 165.05 35.8783 165.233 34.8421L165.285 34.5486H164.987H157.186H156.936V34.7986V58.8996Z" fill="white" stroke="white" stroke-width="0.5"/>
<path d="M121.76 43.5548H148.742H148.955L148.989 43.3448C149.175 42.1952 149.268 40.9529 149.268 39.5243C149.268 37.899 149.082 36.2769 148.805 34.7538L148.767 34.5486H148.559H141.032H140.75L140.784 34.8287C140.866 35.5018 140.946 36.1611 140.963 36.8169H121.673C121.77 36.097 121.929 35.4475 122.091 34.8654L122.179 34.5486H121.85H114.324H114.12L114.079 34.7485C113.71 36.5523 113.431 38.3665 113.431 40.3749C113.431 44.1868 114.171 47.6331 115.757 50.5139C117.337 53.385 119.478 55.6881 122.275 57.3197C125.071 58.9515 128.144 59.7167 131.671 59.7167C135.936 59.7167 139.48 58.6655 142.377 56.4519C145.263 54.2475 147.312 51.3699 148.429 47.9185L148.535 47.5915H148.191H140.206H140.05L139.981 47.7323C139.173 49.3974 138.078 50.6582 136.713 51.504C135.348 52.35 133.697 52.7897 131.762 52.7897C129.064 52.7897 126.741 51.9582 124.865 50.2104C123.052 48.5205 122.066 46.31 121.76 43.5548Z" fill="white" stroke="white" stroke-width="0.5"/>
<path d="M137.753 30.2656L137.822 30.3226H137.912H146.631H147.049L146.852 29.9546C145.362 27.1733 143.218 24.9658 140.609 23.4302L140.609 23.4302L140.606 23.4283C137.902 21.8925 134.83 21.1274 131.396 21.1274C127.87 21.1274 124.705 21.892 121.908 23.5243L121.907 23.5248C119.297 25.0604 117.248 27.1724 115.667 29.949L115.454 30.3226H115.884H124.879H124.969L125.038 30.2656C126.829 28.7904 128.883 28.0543 131.212 28.0543C133.822 28.0543 135.967 28.794 137.753 30.2656Z" fill="white" stroke="white" stroke-width="0.5"/>
<path d="M344.771 17.3557L344.762 17.3687L344.754 17.3828L337.871 29.9531L337.668 30.3232H338.09H346.259H346.406L346.477 30.1943L351.334 21.4177C351.629 21.0081 351.827 20.4971 351.832 19.8896C351.925 19.3773 351.827 18.8725 351.74 18.4208L351.736 18.4004C351.633 17.874 351.333 17.3659 351.05 16.9776C350.749 16.5644 350.354 16.262 349.888 15.9737C349.477 15.6609 348.974 15.5574 348.536 15.4672L348.512 15.4623C348.002 15.3573 347.5 15.4608 347.056 15.5524L347.034 15.5568C346.518 15.663 346.111 15.9773 345.757 16.2511L345.739 16.2654C345.343 16.5708 345.05 16.9734 344.781 17.3426L344.771 17.3557Z" fill="white" stroke="white" stroke-width="0.5"/>
<path d="M335.302 34.6754L326.709 49.8584L318.393 44.886L318.386 44.8819L318.379 44.8783C317.999 44.6828 317.518 44.4837 317.03 44.3832C316.52 44.2782 316.018 44.3817 315.573 44.4733L315.552 44.4777C315.036 44.5839 314.63 44.8981 314.275 45.1719L314.257 45.1863C313.852 45.4989 313.557 45.9094 313.276 46.3924L313.271 46.4006L313.267 46.4091C313.077 46.7996 312.884 47.2934 312.787 47.7938C312.686 48.3143 312.786 48.8277 312.875 49.2864L312.879 49.3069C312.981 49.8343 313.285 50.2512 313.552 50.6175L313.565 50.635C313.868 51.0514 314.267 51.3553 314.737 51.6457L314.74 51.6477L326.292 58.5398C326.703 58.8516 327.206 58.9549 327.643 59.045L327.667 59.0499C328.177 59.1549 328.679 59.0514 329.124 58.9598L329.145 58.9554C329.661 58.8492 330.068 58.535 330.422 58.2612L330.441 58.2468C330.836 57.9414 331.129 57.5388 331.398 57.1696L331.408 57.1565L331.416 57.1446L331.424 57.1318L343.906 34.9211L344.115 34.5486H343.688H335.519H335.374L335.302 34.6754Z" fill="white" stroke="white" stroke-width="0.5"/>
</svg>

<svg
      width="392"
      height="78"
      viewBox="0 0 392 78"
      fill="none"
      xmlns="http://www.w3.org/2000/svg"
    
    >
      <path
        d="M79.538 10.355l-3.635 4.006-3.578 3.94-4.064 4.485a3.065 3.065 0 01-.305-.264 3.587 3.587 0 010-5.062l2.028-2.027 4.798-4.798a3.599 3.599 0 012.53-1.055c.52 0 1.047.115 1.534.346.247.124.478.264.684.429h.008z"
        fill="#3D63AE"
      />
      <path
        d="M79.538 10.355l-3.635 4.006-3.578 3.94-4.064 4.485a3.065 3.065 0 01-.305-.264 3.587 3.587 0 010-5.062l2.028-2.027 4.798-4.798a3.599 3.599 0 012.53-1.055c.52 0 1.047.115 1.534.346.247.124.478.264.684.429h.008z"
        fill="#3D63AE"
      />
      <path
        d="M66.21 58.904a2.634 2.634 0 01-2.638 2.703H25.793l3.174-5.267h34.49c1.442 0 2.711 1.121 2.752 2.564zM73.725 11.688l-1.912-2.34c-.14-.166-.28-.33-.43-.487a8.44 8.44 0 00-6.165-2.655H31.133a8.58 8.58 0 00-6.776 3.355l-11.763 15.44-3.998 5.242h2.844l2.473 1.715 3.19-4.196 11.441-15.01a3.28 3.28 0 012.589-1.278H65.21c.98 0 1.896.437 2.522 1.195l.09.107 2.16 2.646 2.342 2.877 3.577-3.94-2.176-2.67z"
        fill="#fff"
      />
      <path
        d="M94.647 40.392v20.896a8.45 8.45 0 01-2.416 5.935l-.865.89a8.546 8.546 0 01-6.1 2.58h-3.182a8.495 8.495 0 01-7.031-3.709l-9.974-14.607a3.235 3.235 0 00-2.688-1.417h-28.34a3.27 3.27 0 00-2.777 1.566l-2.3 3.816L25.8 61.61l-3 4.97a8.564 8.564 0 01-7.295 4.114h-3.949a8.48 8.48 0 01-6.026-2.49 8.467 8.467 0 01-2.489-6.026V40.441c0-1.854.618-3.684 1.74-5.16l3.824-5.028h2.844l2.473 1.715-4.954 6.503a3.265 3.265 0 00-.668 1.97v21.737c0 .866.338 1.682.956 2.3.61.61 1.426.957 2.3.957h3.949c1.129 0 2.2-.602 2.777-1.575l3.834-6.355 4.64-7.691a8.572 8.572 0 017.296-4.122H62.4a8.502 8.502 0 017.03 3.718l9.975 14.607a3.235 3.235 0 002.687 1.418h3.182c.866 0 1.723-.363 2.325-.981l.865-.89c.594-.61.915-1.419.915-2.268V40.4c0-.742-.264-1.475-.733-2.052l-6.554-6.38 3.914-3.249 6.72 6.307a8.506 8.506 0 011.912 5.382l.009-.016z"
        fill="#fff"
      />
      <path
        d="M55.451 36.914l-3.388 3.726a5.473 5.473 0 01-2.027 1.41c-.124.05-.248.09-.38.132H29.453a2.621 2.621 0 01-1.5-.462l-14.039-9.743-2.473-1.715H2.638A2.64 2.64 0 010 27.624c0-1.459 1.179-2.63 2.638-2.63h9.628c.107 0 .222.01.33.026.42.049.824.206 1.178.445l3.339 2.316 13.172 9.133h25.166zM97.681 27.615c0 .742-.305 1.41-.8 1.888a2.612 2.612 0 01-1.838.742h-8.812l-2.67 1.846-1.93 1.335-11.919 8.268a2.641 2.641 0 01-1.5.462H54.899l5.268-5.267h7.22l12.835-8.903-5.704-6.998 3.742-3.751 6.38 7.83c.248-.073.503-.106.759-.106h9.636a2.638 2.638 0 012.638 2.63l.008.024z"
        fill="#fff"
      />
      <path
        d="M79.538 10.355l-3.635 4.006-3.578 3.94-4.064 4.485a3.05 3.05 0 01-.305-.264 3.587 3.587 0 010-5.061l2.028-2.028 4.798-4.797a3.599 3.599 0 012.53-1.056c.52 0 1.047.116 1.534.347.247.123.478.263.684.428h.008zM61.345 30.41l-5.902 6.504-3.388 3.726a5.473 5.473 0 01-2.028 1.41 5.18 5.18 0 01-.38.131l-.247.074c-.024-.024-.04-.049-.066-.074a3.583 3.583 0 01.24-4.805l.461-.462 6.372-6.372a3.584 3.584 0 012.53-1.055c.52 0 1.04.115 1.534.346.321.157.618.355.866.569l.008.008z"
        fill="#3D63AE"
      />
      <path
        d="M86.111 6.002l-3.948 4.353-3.635 4.006-3.578 3.94-4.064 4.484-6.907 7.617-5.902 6.504-3.388 3.726a5.471 5.471 0 01-2.028 1.41c-.124.049-.248.09-.38.131l-.247.074a5.265 5.265 0 01-2.901-.074 5.458 5.458 0 01-1.93-1.072l-4.863-4.187-8.919-7.683a3.515 3.515 0 01-.37-4.962 3.515 3.515 0 014.962-.37l12.562 10.814 19.883-21.918 3.56-3.924 6.892-7.6c1.31-1.435 3.536-1.55 4.97-.24a3.52 3.52 0 01.248 4.971h-.017z"
        fill="#25D366"
      />
      <path
        d="M382.722 26.615c-1.237-1.482-2.777-2.734-4.68-3.757-2.152-1.156-4.58-1.73-7.461-1.73-3.169 0-6.059.864-8.757 2.493h-.001c-2.518 1.537-4.473 3.649-6.051 6.325l-.222.377H365.961l.054-.028c.379-.195.663-.39.936-.578 1.62-.925 3.319-1.474 5.191-1.474 1.881 0 3.577.46 5.186 1.472l.822.564.063.044h12.535v-8.628h-8.026v4.92zM363.094 46.783h0l-.002-.004c-.985-1.845-1.439-4.07-1.439-6.593 0-1.953.361-3.718.991-5.295l.137-.342h-8.553l-.045.194c-.37 1.62-.648 3.435-.648 5.443 0 3.72.741 7.066 2.228 10.127h-.001l.005.009c1.578 2.963 3.625 5.266 6.237 6.9 2.608 1.63 5.499 2.495 8.577 2.495 2.789 0 5.307-.575 7.549-1.73a15.07 15.07 0 004.775-3.85v5.013h8.026V34.549h-9.239l.128.338c.632 1.674.993 3.44.993 5.488 0 2.516-.542 4.743-1.53 6.593-.992 1.857-2.247 3.236-3.851 4.153-1.622.929-3.324 1.48-5.199 1.48-1.792 0-3.581-.461-5.19-1.474-1.616-1.017-2.961-2.401-3.949-4.344zM296.721 26.585c-1.19-1.474-2.795-2.715-4.679-3.727-2.153-1.156-4.673-1.73-7.461-1.73-3.17 0-6.059.864-8.757 2.493h-.001c-2.518 1.537-4.473 3.649-6.051 6.325l-.222.377h10.427l.064-.044c.129-.089.282-.179.445-.274l.004-.003c.154-.09.318-.187.46-.284 1.62-.926 3.319-1.475 5.191-1.475 1.881 0 3.577.46 5.186 1.472l.409.28.413.284.064.044h12.535v-8.628H296.721v4.89zM277.002 46.783h0l-.002-.004c-.985-1.845-1.439-4.07-1.439-6.593 0-1.953.361-3.718.992-5.295l.137-.342h-8.554l-.044.194c-.371 1.62-.649 3.435-.649 5.443 0 3.72.741 7.066 2.228 10.127h0l.004.009c1.578 2.963 3.626 5.266 6.238 6.9 2.609 1.631 5.592 2.495 8.76 2.495 2.789 0 5.217-.575 7.369-1.731h0l.003-.002c1.981-1.105 3.529-2.365 4.768-3.916v5.399c0 3.55-.907 6.22-2.682 8.048-1.783 1.835-4.101 2.76-7.072 2.76-2.532 0-4.684-.559-6.469-1.754h0l-.008-.005c-1.784-1.102-2.938-2.658-3.471-4.488l-.052-.18h-7.81l.031.278c.467 4.133 2.339 7.315 5.607 9.72 3.263 2.399 7.356 3.64 12.264 3.64 3.705 0 6.871-.764 9.487-2.303 2.701-1.535 4.755-3.65 6.155-6.435 1.396-2.684 2.138-5.748 2.138-9.187V34.55h-9.338l.137.342c.63 1.575.992 3.434.992 5.484 0 2.516-.543 4.743-1.531 6.593-.992 1.857-2.247 3.236-3.851 4.153-1.622.929-3.324 1.48-5.199 1.48-1.792 0-3.581-.461-5.19-1.474-1.616-1.017-2.961-2.401-3.949-4.344zM232.725 43.555H260.012l.034-.21c.186-1.15.279-2.392.279-3.82 0-1.626-.186-3.248-.463-4.771l-.038-.205h-8.017l.034.28c.082.673.162 1.332.179 1.988h-19.29c.097-.72.256-1.37.418-1.952l.088-.316h-8.059l-.041.2c-.369 1.803-.648 3.617-.648 5.626 0 3.812.741 7.258 2.326 10.139 1.58 2.87 3.72 5.172 6.423 6.804l.003.002c2.796 1.632 5.869 2.397 9.396 2.397 4.265 0 7.809-1.051 10.707-3.265 2.885-2.204 4.934-5.082 6.052-8.533l.105-.327H251.015l-.068.14c-.809 1.665-1.903 2.926-3.269 3.772-1.365.846-3.016 1.286-4.95 1.286-2.698 0-5.021-.832-6.897-2.58-1.814-1.69-2.799-3.9-3.106-6.655zM248.81 30.266l.07.057h9.226l-.197-.368c-1.49-2.782-3.634-4.99-6.243-6.525h0l-.003-.002c-2.704-1.536-5.776-2.3-9.21-2.3-3.525 0-6.691.764-9.488 2.396h-.001c-2.61 1.536-4.659 3.648-6.24 6.425l-.213.374H236.026l.069-.057c1.791-1.476 3.846-2.212 6.174-2.212 2.61 0 4.755.74 6.541 2.212zM217.671 29.567h.25V21.127h-.25c-2.519 0-4.673.577-6.548 1.64h0l-.005.002a12.287 12.287 0 00-3.936 3.696v-4.77h-7.934v8.628h12.137l.045-.018c1.159-.46 2.596-.738 4.313-.738h1.928zM199.157 58.9v.25h7.934V39.43c0-1.876.182-3.362.54-4.56l.096-.321h-8.57v24.35zM182.36 58.9v.25h7.842V37.16c0-.865-.093-1.634-.184-2.387l-.001-.005-.027-.22h-8.172l.093.32c.268.92.449 2.125.449 3.427V58.9zM179.412 30.258l.072.065h9.619l-.106-.327c-.192-.593-.479-1.085-.751-1.553l-.004-.005c-1.305-2.4-3.081-4.23-5.327-5.483-2.247-1.254-4.861-1.828-7.648-1.828-2.142 0-4.196.384-6.159 1.25h0l-.004.002a12.837 12.837 0 00-4.234 3.13v-3.814h-7.934v8.628h10.809l.072-.065c1.505-1.367 3.459-2.015 5.798-2.015 2.429 0 4.292.647 5.797 2.015zM156.936 58.9v.25h7.934V38.296c0-1.206.18-2.418.363-3.454l.052-.293h-8.349v24.35zM121.76 43.555h27.195l.034-.21c.186-1.15.279-2.392.279-3.82 0-1.626-.186-3.248-.463-4.771l-.038-.205h-8.017l.034.28c.082.673.162 1.332.179 1.988h-19.29c.097-.72.256-1.37.418-1.952l.088-.316h-8.059l-.041.2c-.369 1.803-.648 3.617-.648 5.626 0 3.812.74 7.258 2.326 10.139 1.58 2.871 3.721 5.174 6.518 6.806 2.796 1.632 5.869 2.397 9.396 2.397 4.265 0 7.809-1.051 10.706-3.265 2.886-2.204 4.935-5.082 6.052-8.533l.106-.327H140.05l-.069.14c-.808 1.665-1.903 2.926-3.268 3.772-1.365.846-3.016 1.286-4.951 1.286-2.698 0-5.021-.832-6.897-2.58-1.813-1.69-2.799-3.9-3.105-6.655zM137.753 30.266l.069.057H147.049l-.197-.368c-1.49-2.782-3.634-4.99-6.243-6.525h0l-.003-.002c-2.704-1.536-5.776-2.3-9.21-2.3-3.526 0-6.691.764-9.488 2.396h-.001c-2.61 1.536-4.659 3.648-6.24 6.425l-.213.374H124.969l.069-.057c1.791-1.476 3.845-2.212 6.174-2.212 2.61 0 4.755.74 6.541 2.212zM344.771 17.356l-.009.013-.008.014-6.883 12.57-.203.37H346.406l.071-.129 4.857-8.776c.295-.41.493-.92.498-1.528.093-.513-.005-1.018-.092-1.47l-.004-.02c-.103-.526-.403-1.034-.686-1.422-.301-.414-.696-.716-1.162-1.004-.411-.313-.914-.417-1.352-.507l-.024-.005c-.51-.105-1.012-.001-1.456.09l-.022.005c-.516.106-.923.42-1.277.694l-.018.014c-.396.306-.689.708-.958 1.078l-.01.013zM335.302 34.675l-8.593 15.183-8.316-4.972-.007-.004-.007-.004a5.463 5.463 0 00-1.349-.495c-.51-.105-1.012-.001-1.457.09l-.021.005c-.516.106-.922.42-1.277.694l-.018.014c-.405.313-.7.723-.981 1.206l-.005.009-.004.008c-.19.39-.383.884-.48 1.385-.101.52-.001 1.034.088 1.492l.004.02c.102.528.406.945.673 1.312l.013.017c.303.416.702.72 1.172 1.01l.003.003 11.552 6.892c.411.312.914.415 1.351.505l.024.005c.51.105 1.012.001 1.457-.09l.021-.005c.516-.106.923-.42 1.277-.694l.019-.014c.395-.306.688-.708.957-1.077l.01-.014.008-.011.008-.013 12.482-22.21.209-.373h-8.741l-.072.126z"
        fill="#fff"
        stroke="#fff"
        strokeWidth="0.5"
      />
    </svg>
